Final project/assets/images/w-w-d-public-icon.svg

<svg width="28" height="28" viewBox="0 0 28 28" fill="none" xmlns="http://www.w3.org/2000/svg">
<rect width="28" height="28" rx="4" fill="black"/>
<path d="M15.5999 14.0413C15.1837 14.4186 14.7448 14.9294 14.346 15.6145C13.9519 14.2664 13.4551 13.2782 12.9529 12.5547C15.2572 5.26135 4.02734 5 4.02734 5C4.02734 5 4.35516 14.1154 10.22 13.9061C10.208 13.2957 10.1083 12.6786 9.96858 12.0999C9.87722 11.7226 9.76854 11.3628 9.65629 11.0307C9.2813 9.92935 8.85795 9.14758 8.85795 9.14758C9.28548 9.69177 9.66405 10.2111 9.99843 10.6992C11.1491 12.3765 11.7772 13.681 12.0692 14.37C12.7899 15.8368 13.4372 18.2494 13.4372 22.1922C13.4372 22.6385 13.8199 23 14.2893 23C14.7598 23 15.1419 22.6385 15.1419 22.1922C15.1419 20.9143 15.0768 19.7773 14.9592 18.763C15.2309 17.5253 15.6411 16.6468 16.0657 16.0246C16.3445 15.5206 16.8586 14.6573 17.5513 13.776C18.1681 12.992 18.9288 12.1932 19.7892 11.623C19.7892 11.623 18.0248 13.4734 17.9107 15.2847C22.7843 15.5256 22.9736 8.26172 22.9736 8.26172C22.9736 8.26172 14.0546 8.55022 15.5999 14.0413Z" fill="#FFEBB9"/>
</svg>

<svg width="28" height="28" fill="none" xmlns="http://www.w3.org/2000/svg"><rect width="28" height="28" rx="4" fill="#000"/><path d="M15.6 14.041a6.557 6.557 0 0 0-1.254 1.573c-.394-1.348-.89-2.336-1.393-3.06C15.257 5.262 4.027 5 4.027 5s.328 9.115 6.193 8.906a8.495 8.495 0 0 0-.251-1.806c-.092-.377-.2-.737-.313-1.07-.375-1.1-.798-1.882-.798-1.882.427.544.806 1.063 1.14 1.551 1.151 1.678 1.78 2.982 2.071 3.671.72 1.467 1.368 3.88 1.368 7.822 0 .447.383.808.852.808.47 0 .853-.361.853-.808 0-1.278-.065-2.415-.183-3.429.272-1.238.682-2.116 1.107-2.738a17.25 17.25 0 0 1 1.485-2.249c.617-.784 1.378-1.583 2.238-2.153 0 0-1.764 1.85-1.878 3.662 4.873.24 5.063-7.023 5.063-7.023s-8.92.288-7.374 5.78Z" fill="#FFEBB9"/></svg>
